public/img/search.svg

<?xml version="1.0" encoding="UTF-8"?>
<svg xmlns="http://www.w3.org/2000/svg" xmlns:xlink="http://www.w3.org/1999/xlink" viewBox="0 0 26 26" version="1.1" fill="#cccccc" width="50px" height="50px">
<g id="surface1" fill="#cccccc">
<path style=" " d="M 10 0.1875 C 4.578125 0.1875 0.1875 4.578125 0.1875 10 C 0.1875 15.421875 4.578125 19.8125 10 19.8125 C 12.289063 19.8125 14.394531 19.003906 16.0625 17.6875 L 16.9375 18.5625 C 16.570313 19.253906 16.699219 20.136719 17.28125 20.71875 L 21.875 25.34375 C 22.589844 26.058594 23.753906 26.058594 24.46875 25.34375 L 25.34375 24.46875 C 26.058594 23.753906 26.058594 22.589844 25.34375 21.875 L 20.71875 17.28125 C 20.132813 16.695313 19.253906 16.59375 18.5625 16.96875 L 17.6875 16.09375 C 19.011719 14.421875 19.8125 12.300781 19.8125 10 C 19.8125 4.578125 15.421875 0.1875 10 0.1875 Z M 10 2 C 14.417969 2 18 5.582031 18 10 C 18 14.417969 14.417969 18 10 18 C 5.582031 18 2 14.417969 2 10 C 2 5.582031 5.582031 2 10 2 Z M 4.9375 7.46875 C 4.421875 8.304688 4.125 9.289063 4.125 10.34375 C 4.125 13.371094 6.566406 15.8125 9.59375 15.8125 C 10.761719 15.8125 11.859375 15.433594 12.75 14.8125 C 12.511719 14.839844 12.246094 14.84375 12 14.84375 C 8.085938 14.84375 4.9375 11.695313 4.9375 7.78125 C 4.9375 7.675781 4.933594 7.574219 4.9375 7.46875 Z " fill="#cccccc"/>
</g>
</svg>

<?xml version="1.0" encoding="UTF-8"?>
<svg width="50px" height="50px" fill="#cccccc" version="1.1" viewBox="0 0 26 26" xmlns="http://www.w3.org/2000/svg">
<g fill="#ccc">
<path d="m10 0.1875c-5.4219 0-9.8125 4.3906-9.8125 9.8125s4.3906 9.8125 9.8125 9.8125c2.2891 0 4.3945-0.80859 6.0625-2.125l0.875 0.875c-0.36719 0.69141-0.23828 1.5742 0.34375 2.1562l4.5938 4.625c0.71484 0.71484 1.8789 0.71484 2.5938 0l0.875-0.875c0.71484-0.71484 0.71484-1.8789 0-2.5938l-4.625-4.5938c-0.58594-0.58594-1.4648-0.6875-2.1562-0.3125l-0.875-0.875c1.3242-1.6719 2.125-3.793 2.125-6.0938 0-5.4219-4.3906-9.8125-9.8125-9.8125zm0 1.8125c4.418 0 8 3.582 8 8s-3.582 8-8 8-8-3.582-8-8 3.582-8 8-8zm-5.0625 5.4688c-0.51562 0.83594-0.8125 1.8203-0.8125 2.875 0 3.0273 2.4414 5.4688 5.4688 5.4688 1.168 0 2.2656-0.37891 3.1562-1-0.23828 0.027344-0.50391 0.03125-0.75 0.03125-3.9141 0-7.0625-3.1484-7.0625-7.0625 0-0.10547-0.003906-0.20703 0-0.3125z" fill="#ccc"/>
</g>
</svg>
